apps/statesvisited/state-images/CT.svg

<svg height="635" width="1182" xmlns="http://www.w3.org/2000/svg"><path d="m860.46472 173.6894s11.2848-1.48483 13.6605-2.37573c2.3757-.89089 12.7695-2.07876 13.9574-1.18786s2.6727 3.86056 2.6727 6.23629.5939 4.45449-2.6727 6.83022-13.3635 5.93932-15.7392 7.42415-7.1272 3.5636-7.1272 4.75146v1.48483l-3.8606-.8909s-1.4848-5.64235-1.4848-9.50291.8909-12.17561.5939-12.76955z" fill="#f77f00" fill-rule="evenodd" opacity=".9" stroke="#000"/></svg>

<?xml version="1.0" encoding="UTF-8" standalone="no"?>
<!-- Created with Inkscape (http://www.inkscape.org/) -->
<svg
   xmlns:dc="http://purl.org/dc/elements/1.1/"
   xmlns:cc="http://web.resource.org/cc/"
   xmlns:rdf="http://www.w3.org/1999/02/22-rdf-syntax-ns#"
   xmlns:svg="http://www.w3.org/2000/svg"
   xmlns="http://www.w3.org/2000/svg"
   xmlns:xlink="http://www.w3.org/1999/xlink"
   xmlns:sodipodi="http://sodipodi.sourceforge.net/DTD/sodipodi-0.dtd"
   xmlns:inkscape="http://www.inkscape.org/namespaces/inkscape"
   id="svg1923"
   sodipodi:version="0.32"
   inkscape:version="0.44"
   width="1182"
   height="635"
   version="1.0"
   sodipodi:docbase="/Users/amyshore/Desktop"
   sodipodi:docname="usa.svg">
  <metadata
     id="metadata1928">
    <rdf:RDF>
      <cc:Work
         rdf:about="">
        <dc:format>image/svg+xml</dc:format>
        <dc:type
           rdf:resource="http://purl.org/dc/dcmitype/StillImage" />
      </cc:Work>
    </rdf:RDF>
  </metadata>
  <defs
     id="defs1926" />
  <sodipodi:namedview
     inkscape:window-height="752"
     inkscape:window-width="1280"
     inkscape:pageshadow="2"
     inkscape:pageopacity="0.0"
     guidetolerance="10.0"
     gridtolerance="10.0"
     objecttolerance="10.0"
     borderopacity="1.0"
     bordercolor="#666666"
     pagecolor="#ffffff"
     id="base"
     inkscape:zoom="0.59527559"
     inkscape:cx="775.234"
     inkscape:cy="319.32597"
     inkscape:window-x="0"
     inkscape:window-y="22"
     inkscape:current-layer="layer2" />
  <g
     inkscape:groupmode="layer"
     id="layer1"
     inkscape:label="bg"
     style="opacity:1;display:none"
     sodipodi:insensitive="true">
    <image
       xlink:href="ElectoralCollege1996-Large.png"
       sodipodi:absref="/Users/amyshore/Desktop/ElectoralCollege1996-Large.png"
       width="1182"
       height="635"
       id="image1930"
       x="-1.3571358"
       y="1.6798911" />
  </g>
  <g
     inkscape:groupmode="layer"
     id="layer2"
     inkscape:label="vector"
     style="opacity:0.9;display:inline"> <path style="fill:#f77f00;fill-opacity:1;fill-rule:evenodd;stroke:black;stroke-width:1px;stroke-linecap:butt;stroke-linejoin:miter;stroke-opacity:1" d="M 860.46472,173.6894 C 860.46472,173.6894 871.74952,172.20457 874.12522,171.31367 C 876.50092,170.42278 886.89472,169.23491 888.08262,170.12581 C 889.27052,171.01671 890.75532,173.98637 890.75532,176.3621 C 890.75532,178.73783 891.34922,180.81659 888.08262,183.19232 C 884.81602,185.56805 874.71912,189.13164 872.34342,190.61647 C 869.96772,192.1013 865.21622,194.18007 865.21622,195.36793 C 865.21622,196.5558 865.21622,196.85276 865.21622,196.85276 L 861.35562,195.96186 C 861.35562,195.96186 859.87082,190.31951 859.87082,186.45895 C 859.87082,182.59839 860.76172,174.28334 860.46472,173.6894 z " id="path12580" />   </g>
</svg>
